X:1
T:The Earl of Errol
M:4/4
L:1/4
K:G
 D| G B BA/2-B/2| d A A D| G BB/2-A/2 B| d3| D| G B BA/2-B/2| d A AB/2-A/2|\
 G EE/2-D/2 E| G3| B/2A/2| G E E D/2E/2| G D DB/2-A/2| G EE/2-D/2 E|\
 G3|B/2-A/2| G E ED/2-E/2| G D D B/2A/2| G EE/2-D/2 E| G3||
